X:1
T:One evening of late as I roved out in state
L:1/4
M:3/4
I:linebreak $
K:Bb
V:1 treble 
V:1
 F/ | F F F/G/ | B2 c/B/ | G F F | F2 G/>A/ | B c d | e d e | c f e | f2 =e/f/ | g{g} f =e | %10
 f3/2 g/_e/d/ |$ c B A | G2 B/c/ | d/=e/ f e/c/ | B2 G/F/ | G F F | F2 || %17
